X:1
T:Title
%%score { ( 1 3 ) | 2 }
L:1/8
M:3/4
K:Eb
V:1 treble nm="Grand Piano"
V:3 treble 
V:2 bass 
V:1
 z2 z2[Q:1/4=100] [G,E]2 | [B,EG]3 [B,EG] [B,DA][A,B,D] | [A,DF]2 [G,E]2 [G,_DE]2 | %3
 [A,CE]3 [CEA] [CE][=B,EF] |[M:2/4] [B,EG]4 |[M:1/4] [B,EG]2 |[M:3/4] [B,DB]3 [A,DF] [G,EG][DA] | %7
 [FA]2 G2 G2 | F3 B =Ac |[M:2/4] [DB]4 |[M:1/4] B2 |[M:3/4] B3 B cB | B2 G2 B2 | [Ee]3 [Ge] dc | %14
[M:2/4] B4 |[M:1/4] E2 |[M:3/4] A3 G cB | B2 [B,E]2 [CFA]2 | [B,EG]3 [G,B,E] [B,DG][A,DF] | %19
[M:2/4] [G,E]4 |] %20
V:2
 z2 z2 E,2 | E,3 E, B,,B,, | B,,2 E,2 E,2 | A,,3 A,, A,,A,, |[M:2/4] E,4 |[M:1/4] E,2 | %6
[M:3/4] B,,3 B,, B,,[B,,F,] | [D,B,]2 [E,B,E]2 [=E,B,_D]2 | [F,B,D]3 [F,DF] [F,CE][F,=A,E] | %9
[M:2/4] [B,,B,]4 |[M:1/4] [E,G,E]2 |[M:3/4] [E,G,E]3 [E,G,E] [E,A,E][E,G,E] | %12
 [E,G,E]2 [E,B,E]2 [E,G,E]2 | [C,G,]3 [C,B,] [F,=A,F][F,A,E] |[M:2/4] [B,D]4 |[M:1/4] [G,B,]2 | %16
[M:3/4] [F,B,D]3 [E,B,E] [E,A,E][E,G,E] | [E,G,E]2 G,,2 A,,2 | B,,3 B,, B,,B,, |[M:2/4] E,4 |] %20
V:3
 x6 | x6 | x6 | x6 |[M:2/4] x4 |[M:1/4] x2 |[M:3/4] x6 | x6 | x6 |[M:2/4] x4 |[M:1/4] x2 | %11
[M:3/4] x6 | x6 | x6 |[M:2/4] z2 A,2 |[M:1/4] x2 |[M:3/4] x6 | x6 | x6 |[M:2/4] x4 |] %20

